X: 5
T: The Blackhaired Lass
R: slip jig
M: 9/8
L: 1/8
K: Dmaj
FAA FAB AFD|FAA FAB ~d3|FAA FAB AFD|~f3 edc B2A:|
~f3 efe d2e|~f3 def gfe|~f3 efe d2A|BAF DFA B2A:|


Tune 407	Setting 407

